!!!OTL: HIE FUER EINES FROMMEN BRAEUTGAM THUER
!!!ARE: Europa, Mitteleuropa, Deutschland
!!!SCT: E1276
!!!YEM: Copyright 1995, estate of Helmut Schaffrath.
**kern
*ICvox
*Ivox
*M4/4
*k[b-]
*F:
=1
{2f
2a
=2
2cc
4cc}
{4cc
=3
4cc
4a
4b-
4cc
=4
4a
4a
2a
=5
4r}
{4f
4b-
4b-
=6
4a
4g
4f
4f
=7
4g}
{4g
4a
4a
=8
4g
4f
2a
=9
4b-}
{4b-
4a
4f
=10
4g
4g
2f
=11
2f
4r}
{4f
=12
4f
4g
4a
4f
=13
4cc
4cc
4cc}
{4cc
=14
4cc
4a
4b-
4cc
=15
2a
2a
=16
4r}
{4f
4b-
4b-
=17
4a
4g
4f
4f
=18
4g}
{4g
4a
4a
=19
4g
4f
2a
=20
4b-}
{4b-
4a
4f
=21
4g
4g
2f
=22
1f}
==
!!!AGN: Ansinge -, Brauchtums - Lied, Kirchen - Fest, Hochzeit
!!!ONB: ESAC (Essen Associative Code) Database: ERK3
!!!AMT: simple quadruple
!!!AIN: vox
!!!EED: Helmut Schaffrath
!!!EEV: 1.0
*-
